X:1
T:Title
%%score { ( 1 3 ) | ( 2 4 ) }
L:1/8
Q:1/4=100
M:4/4
K:Ab
V:1 treble nm="Grand Piano"
V:3 treble 
V:2 bass 
V:4 bass 
V:1
 [CE][Ec][Ec][Ec] [Ec][Ee][Ed][Ec] | [Fc]2 [FB]2 F4 | FBBB BdcB | [DB]2 [CA]2 [CE]4 | %4
w: Chas.~H.~Gabriel * * * * * * *||||
 [CE][Ec][Ec][Ec] [Ec][Ee][Ed][Ec] | [Fc]2 [FB]2 [Fd]4 | ccEA BB c>B | [CA]6 z2 | %8
w: ||||
 [FA][Fd] [Fd]2 [Fd][DF] [DF]2 | [CE][Ec] [Ec]>[=D_c] [E=c]4 | eecc d2 c2 | cBB=A B4 | %12
w: ||||
 BB[FB][F_c] [=E=c]2 [EG]2 | z4 [Ge]4[K:bass] | [Ae][Ae][DGe][DGe] [CAe][Ec][EA][Fd] | %15
w: |||
 [Ec]2 [DEB]2 [CEA]4 |] %16
w: |
V:2
 [A,,A,][A,,A,][A,,A,][A,,A,] [A,,A,][A,,C][A,,B,][A,,A,] | [D,A,]2 [D,A,]2 [D,A,D]4 | %2
 [E,G,D][E,G,D][E,G,D][E,G,D] [E,G,D][E,G,F][E,G,E][E,G,D] | [A,,A,]2 [A,,A,]2 [A,,A,]4 | %4
 [A,,A,][A,,A,][A,,A,][A,,A,] [A,,A,][A,,C][A,,B,][A,,A,] | [D,A,]2 [D,A,]2 [D,A,]4 | %6
 [E,A,E][E,A,E][E,A,C][E,A,C] [E,G,D][E,G,D] [E,G,E]>[E,G,D] | [A,,A,]6 z2 | %8
 [D,A,][D,A,] [D,A,]2 [D,A,][D,A,] [D,A,]2 | [A,,A,][A,,A,] [A,,A,]>[A,,A,] [A,,A,]4 | %10
 [A,CE][A,CE][A,E][A,E] [G,B,E]2 [A,E]2 | [E,A,E][E,G,E][E,G,E][E,_G,E] [E,=G,E]4 | %12
 [E,G,E][E,G,E][D,A,][D,F,] [C,G,]2 [C,C]2 | z4 B,4 | [C,A,][C,A,]B,,B,, A,,[A,,A,][C,A,][D,A,] | %15
 [E,A,]2 E,2 A,,4 |] %16
V:3
 x8 | x8 | x8 | x8 | x8 | x8 | x8 | x8 | x8 | x8 | x8 | x8 | x8 | %13
 [FA][GB][Ac][A=d] z2[K:bass] D,2 | x8 | x8 |] %16
V:4
 x8 | x8 | x8 | x8 | x8 | x8 | x8 | x8 | x8 | x8 | x8 | x8 | x8 | [F,C][E,E][A,E][F,B,] E,2 z2 | %14
 x8 | x8 |] %16

